small/extra/apps/standard/webstorm.svg

<svg xmlns="http://www.w3.org/2000/svg" viewBox="0 0 512 512"><path d="m26 0c-14.397 0-26 11.603-26 26v460c0 14.397 11.603 26 26 26h460c14.397 0 26-11.603 26-26v-460c0-14.397-11.603-26-26-26h-460" style="fill:#0078ad"/><g style="fill:#fff"><path d="m26 0c-1.581 0-3.123.169-4.625.438v19.844h-20.75c-.411 1.841-.625 3.751-.625 5.719h21.375v45.781h-21.375v5.719h21.406v45.781h-21.406v5.719h21.406v45.781h-21.406v5.719h21.406v45.781h-21.406v5.719h21.406v45.781h-21.406v5.719h21.375v45.781h-21.375v5.719h21.375v45.781h-21.375v5.719h21.375v45.781h-21.375v5.719h21.375v45.781h-21.375v2.219c0 1.189.097 2.354.25 3.5h21.13v22.06c1.502.268 3.044.438 4.625.438h1.094v-22.5h45.781v22.5h5.719v-22.5h45.781v22.5h5.719v-22.5h45.781v22.5h5.719v-22.5h45.781v22.5h5.719v-22.5h45.781v22.5h5.719v-22.5h45.781v22.5h5.719v-22.5h45.781v22.5h5.719v-22.5h45.781v22.5h5.75v-22.5h45.781v22.5h1.094c1.581 0 3.123-.169 4.625-.438v-22.06h21.13c.153-1.146.25-2.311.25-3.5v-2.219h-21.375v-45.781h21.375v-5.719h-21.406v-45.781h21.406v-5.719h-21.406v-45.781h21.406v-5.719h-21.406v-45.781h21.406v-5.719h-21.375v-45.781h21.375v-5.719h-21.375v-45.781h21.375v-5.719h-21.375v-45.781h21.375v-5.719h-21.375v-45.781h21.375v-5.719h-21.375v-45.781h21.375c0-1.967-.214-3.878-.625-5.719h-20.75v-19.844c-1.502-.268-3.044-.438-4.625-.438h-1.094v20.281h-45.781v-20.281h-5.719v20.281h-45.781v-20.281h-5.719v20.281h-45.781v-20.281h-5.719v20.281h-45.781v-20.281h-5.719v20.281h-45.781v-20.281h-5.719v20.281h-45.781v-20.281h-5.719v20.281h-45.781v-20.281h-5.719v20.281h-45.781v-20.281h-5.75v20.281h-45.781v-20.281h-1.094m1.125 26h45.781v45.781h-45.781v-45.781m51.5 0h45.781v45.781h-45.781v-45.781m51.5 0h45.781v45.781h-45.781v-45.781m51.5 0h45.781v45.781h-45.781v-45.781m51.5 0h45.781v45.781h-45.781v-45.781m51.5 0h45.781v45.781h-45.781v-45.781m51.5 0h45.781v45.781h-45.781v-45.781m51.5 0h45.781v45.781h-45.781v-45.781m51.5 0h45.781v45.781h-45.781v-45.781m-412 51.5h45.781v45.781h-45.781v-45.781m51.5 0h45.781v45.781h-45.781v-45.781m51.5 0h45.781v45.781h-45.781v-45.781m51.5 0h45.781v45.781h-45.781v-45.781m51.5 0h45.781v45.781h-45.781v-45.781m51.5 0h45.781v45.781h-45.781v-45.781m51.5 0h45.781v45.781h-45.781v-45.781m51.5 0h45.781v45.781h-45.781v-45.781m51.5 0h45.781v45.781h-45.781v-45.781m-412 51.5h45.781v45.781h-45.781v-45.781m51.5 0h45.781v45.781h-45.781v-45.781m51.5 0h45.781v45.781h-45.781v-45.781m51.5 0h45.781v45.781h-45.781v-45.781m51.5 0h45.781v45.781h-45.781v-45.781m51.5 0h45.781v45.781h-45.781v-45.781m51.5 0h45.781v45.781h-45.781v-45.781m51.5 0h45.781v45.781h-45.781v-45.781m51.5 0h45.781v45.781h-45.781v-45.781m-412 51.5h45.781v45.781h-45.781v-45.781m51.5 0h45.781v45.781h-45.781v-45.781m51.5 0h45.781v45.781h-45.781v-45.781m51.5 0h45.781v45.781h-45.781v-45.781m51.5 0h45.781v45.781h-45.781v-45.781m51.5 0h45.781v45.781h-45.781v-45.781m51.5 0h45.781v45.781h-45.781v-45.781m51.5 0h45.781v45.781h-45.781v-45.781m51.5 0h45.781v45.781h-45.781v-45.781m-412 51.5h45.781v45.781h-45.781v-45.781m51.5 0h45.781v45.781h-45.781v-45.781m51.5 0h45.781v45.781h-45.781v-45.781m51.5 0h45.781v45.781h-45.781v-45.781m51.5 0h45.781v45.781h-45.781v-45.781m51.5 0h45.75v45.781h-45.75v-45.781m51.5 0h45.75v45.781h-45.75v-45.781m51.5 0h45.75v45.781h-45.75v-45.781m51.5 0h45.75v45.781h-45.75v-45.781m-412 51.5h45.75v45.781h-45.75v-45.781m51.5 0h45.75v45.781h-45.75v-45.781m51.47 0h45.781v45.781h-45.781v-45.781m51.5 0h45.781v45.781h-45.781v-45.781m51.5 0h45.781v45.781h-45.781v-45.781m51.5 0h45.781v45.781h-45.781v-45.781m51.5 0h45.781v45.781h-45.781v-45.781m51.5 0h45.781v45.781h-45.781v-45.781m51.5 0h45.781v45.781h-45.781v-45.781m-412 51.5h45.781v45.781h-45.781v-45.781m51.5 0h45.781v45.781h-45.781v-45.781m51.5 0h45.781v45.781h-45.781v-45.781m51.5 0h45.781v45.781h-45.781v-45.781m51.5 0h45.781v45.781h-45.781v-45.781m51.5 0h45.781v45.781h-45.781v-45.781m51.5 0h45.781v45.781h-45.781v-45.781m51.5 0h45.781v45.781h-45.781v-45.781m51.5 0h45.781v45.781h-45.781v-45.781m-412 51.5h45.781v45.781h-45.781v-45.781m51.5 0h45.781v45.781h-45.781v-45.781m51.5 0h45.781v45.781h-45.781v-45.781m51.5 0h45.781v45.781h-45.781v-45.781m51.5 0h45.781v45.781h-45.781v-45.781m51.5 0h45.781v45.781h-45.781v-45.781m51.5 0h45.781v45.781h-45.781v-45.781m51.5 0h45.781v45.781h-45.781v-45.781m51.5 0h45.781v45.781h-45.781v-45.781m-412 51.5h45.781v45.781h-45.781v-45.781m51.5 0h45.781v45.781h-45.781v-45.781m51.5 0h45.781v45.781h-45.781v-45.781m51.5 0h45.781v45.781h-45.781v-45.781m51.5 0h45.781v45.781h-45.781v-45.781m51.5 0h45.781v45.781h-45.781v-45.781m51.5 0h45.781v45.781h-45.781v-45.781m51.5 0h45.781v45.781h-45.781v-45.781m51.5 0h45.781v45.781h-45.781v-45.781" style="fill-opacity:.308;color:#000"/><path d="m189.68 71.33l-34.783 158.89-30.374-157.79h-83.53l74.971 368.15h72.35l32.821-156.54 31.953 156.64h28.747l12.727-13.635c22.716-27.558 46.781-47.46 59.42-74.78 4.929-12.649 6.167-23.53 3.827-33.11-2.079-8.504-6.952-15.969-14.592-22.726-17.675-17.238-33.957-31.05-43.15-50.14-7.924-19.657-12.561-39.24-15.214-56.17l-24.304-118.8h-70.861m159.89 1.34c-14.584 21.629-24.628 34.949-32.534 51.814-19.947 32.907-15.549 79.2.479 113.34 9.02 23.12 29.25 36.29 44.06 52.723 7.316 7.613 11.704 16.489 13.874 25.883 3.443 14.905 1.232 31.04-4.114 45.07-14.15 31.675-38.07 52.46-62.53 78.81h118.66c17.297-21.641 29.737-49.47 36.691-72.77 5.354-18.266 8.04-36.562 6.316-52.771-2.238-17.06-8.235-33.3-17.03-45.833-17.455-23.977-43.93-45.13-54.25-64.54-5.861-11.861-6.206-24.269-2.584-41.38 8.404-38.1 41.62-56.12 64.78-90.33h-111.81"/></g><text y="312.48" x="-100.1" line-height="125%" style="letter-spacing:0;word-spacing:0;font-size:129.23;font-family:Gentium Book Basic"><tspan y="312.48" x="-100.1"/></text><text transform="scale(4.0128.2492)" y="904.75" x="172.14" style="font-size:46.954;font-family:Arial;text-anchor:middle"/><text y="232.48" x="481.17" line-height="125%" style="letter-spacing:0;word-spacing:0;font-size:129.23;font-family:Gentium Book Basic"><tspan y="232.48" x="481.17"/></text><text transform="scale(4.0128.2492)" y="583.73" x="316.99" style="font-size:46.954;font-family:Arial;text-anchor:middle"/><text y="51.22" x="-590.41" line-height="125%" style="letter-spacing:0;word-spacing:0;font-size:129.23;font-family:Gentium Book Basic"><tspan y="51.22" x="-590.41"/></text><text transform="scale(4.0128.2492)" y="-143.63" x="49.947" style="font-size:46.954;font-family:Arial;text-anchor:middle"/><text y="-165.25" x="507.64" line-height="125%" style="letter-spacing:0;word-spacing:0;font-size:129.23;font-family:Gentium Book Basic"><tspan y="-165.25" x="507.64"/></text><text transform="scale(4.0128.2492)" y="-1012.3" x="323.59" style="font-size:46.954;font-family:Arial;text-anchor:middle"/><text y="-245.26" x="1088.91" line-height="125%" style="letter-spacing:0;word-spacing:0;font-size:129.23;font-family:Gentium Book Basic"><tspan y="-245.26" x="1088.91"/></text><text transform="scale(4.0128.2492)" y="-1333.33" x="468.43" style="font-size:46.954;font-family:Arial;text-anchor:middle"/><text y="-717.66" x="699.79" line-height="125%" style="letter-spacing:0;word-spacing:0;font-size:129.23;font-family:Gentium Book Basic"><tspan y="-717.66" x="699.79"/></text><text transform="scale(4.0128.2492)" y="-3228.98" x="371.46" style="font-size:46.954;font-family:Arial;text-anchor:middle"/><text y="-797.66" x="1281.05" line-height="125%" style="letter-spacing:0;word-spacing:0;font-size:129.23;font-family:Gentium Book Basic"><tspan y="-797.66" x="1281.05"/></text><text transform="scale(4.0128.2492)" y="-3550.01" x="516.31" style="font-size:46.954;font-family:Arial;text-anchor:middle"/><text y="617.06" x="-551.75" line-height="125%" style="letter-spacing:0;word-spacing:0;font-size:208.33;font-family:Gentium Book Basic"><tspan y="617.06" x="-551.75"/></text></svg>

<?xml version="1.0" encoding="UTF-8" standalone="no"?>
<!-- Created with Inkscape (http://www.inkscape.org/) -->

<svg
   xmlns:dc="http://purl.org/dc/elements/1.1/"
   xmlns:cc="http://creativecommons.org/ns#"
   xmlns:rdf="http://www.w3.org/1999/02/22-rdf-syntax-ns#"
   xmlns:svg="http://www.w3.org/2000/svg"
   xmlns="http://www.w3.org/2000/svg"
   xmlns:inkscape="http://www.inkscape.org/namespaces/inkscape"
   version="1.1"
   width="100%"
   height="100%"
   viewBox="0 0 512 512"
   id="svg2">
  <metadata
     id="metadata60">
    <rdf:RDF>
      <cc:Work
         rdf:about="">
        <dc:format>image/svg+xml</dc:format>
        <dc:type
           rdf:resource="http://purl.org/dc/dcmitype/StillImage" />
      </cc:Work>
    </rdf:RDF>
  </metadata>
  <defs
     id="defs58" />
  <path
     d="M 26,0 C 11.603,0 0,11.603 0,26 v 460 c 0,14.397 11.603,26 26,26 h 460 c 14.397,0 26,-11.603 26,-26 V 26 C 512,11.603 500.397,0 486,0 H 26"
     inkscape:connector-curvature="0"
     id="path4"
     style="fill:#0078ad" />
  <path
     d="M 26,0 C 24.419,0 22.877,0.169 21.375,0.438 V 20.282 H 0.625 C 0.214,22.123 0,24.033 0,26.001 H 21.375 V 71.782 H 0 v 5.719 h 21.406 v 45.781 H 0 v 5.719 h 21.406 v 45.781 H 0 v 5.719 h 21.406 v 45.781 H 0 v 5.719 h 21.406 v 45.781 H 0 v 5.719 h 21.375 v 45.781 H 0 v 5.719 h 21.375 v 45.781 H 0 v 5.719 h 21.375 v 45.781 H 0 v 5.719 h 21.375 v 45.781 H 0 v 2.219 c 0,1.189 0.097,2.354 0.25,3.5 h 21.13 v 22.06 c 1.502,0.268 3.044,0.438 4.625,0.438 h 1.094 v -22.5 H 72.88 v 22.5 h 5.719 v -22.5 h 45.781 v 22.5 h 5.719 v -22.5 h 45.781 v 22.5 h 5.719 v -22.5 h 45.781 v 22.5 h 5.719 v -22.5 h 45.781 v 22.5 h 5.719 v -22.5 h 45.781 v 22.5 h 5.719 v -22.5 h 45.781 v 22.5 h 5.719 v -22.5 h 45.781 v 22.5 h 5.75 v -22.5 h 45.781 v 22.5 h 1.094 c 1.581,0 3.123,-0.169 4.625,-0.438 v -22.06 h 21.13 c 0.153,-1.146 0.25,-2.311 0.25,-3.5 v -2.219 h -21.375 v -45.781 h 21.375 v -5.719 h -21.406 v -45.781 h 21.406 v -5.719 h -21.406 v -45.781 h 21.406 v -5.719 h -21.406 v -45.781 h 21.406 v -5.719 h -21.375 v -45.781 h 21.375 v -5.719 h -21.375 v -45.781 h 21.375 v -5.719 h -21.375 v -45.781 h 21.375 v -5.719 H 490.635 V 77.501 H 512.01 V 71.782 H 490.635 V 26.001 h 21.375 c 0,-1.967 -0.214,-3.878 -0.625,-5.719 h -20.75 V 0.438 C 489.133,0.17 487.591,0 486.01,0 h -1.094 V 20.281 H 439.135 V 0 h -5.719 V 20.281 H 387.635 V 0 h -5.719 V 20.281 H 336.135 V 0 h -5.719 V 20.281 H 284.635 V 0 h -5.719 V 20.281 H 233.135 V 0 h -5.719 V 20.281 H 181.635 V 0 h -5.719 V 20.281 H 130.135 V 0 h -5.719 V 20.281 H 78.635 V 0 h -5.75 V 20.281 H 27.104 V 0 H 26.01 m 1.125,26 H 72.916 V 71.781 H 27.135 V 26 m 51.5,0 h 45.781 V 71.781 H 78.635 V 26 m 51.5,0 h 45.781 V 71.781 H 130.135 V 26 m 51.5,0 h 45.781 V 71.781 H 181.635 V 26 m 51.5,0 h 45.781 V 71.781 H 233.135 V 26 m 51.5,0 h 45.781 V 71.781 H 284.635 V 26 m 51.5,0 h 45.781 V 71.781 H 336.135 V 26 m 51.5,0 h 45.781 V 71.781 H 387.635 V 26 m 51.5,0 h 45.781 V 71.781 H 439.135 V 26 m -412,51.5 h 45.781 v 45.781 H 27.135 V 77.5 m 51.5,0 h 45.781 v 45.781 H 78.635 V 77.5 m 51.5,0 h 45.781 v 45.781 H 130.135 V 77.5 m 51.5,0 h 45.781 v 45.781 H 181.635 V 77.5 m 51.5,0 h 45.781 v 45.781 H 233.135 V 77.5 m 51.5,0 h 45.781 v 45.781 H 284.635 V 77.5 m 51.5,0 h 45.781 v 45.781 H 336.135 V 77.5 m 51.5,0 h 45.781 v 45.781 H 387.635 V 77.5 m 51.5,0 h 45.781 v 45.781 H 439.135 V 77.5 m -412,51.5 h 45.781 v 45.781 H 27.135 V 129 m 51.5,0 h 45.781 v 45.781 H 78.635 V 129 m 51.5,0 h 45.781 v 45.781 H 130.135 V 129 m 51.5,0 h 45.781 v 45.781 H 181.635 V 129 m 51.5,0 h 45.781 v 45.781 H 233.135 V 129 m 51.5,0 h 45.781 v 45.781 H 284.635 V 129 m 51.5,0 h 45.781 v 45.781 H 336.135 V 129 m 51.5,0 h 45.781 v 45.781 H 387.635 V 129 m 51.5,0 h 45.781 v 45.781 H 439.135 V 129 m -412,51.5 h 45.781 v 45.781 H 27.135 V 180.5 m 51.5,0 h 45.781 v 45.781 H 78.635 V 180.5 m 51.5,0 h 45.781 v 45.781 H 130.135 V 180.5 m 51.5,0 h 45.781 v 45.781 H 181.635 V 180.5 m 51.5,0 h 45.781 v 45.781 H 233.135 V 180.5 m 51.5,0 h 45.781 v 45.781 H 284.635 V 180.5 m 51.5,0 h 45.781 v 45.781 H 336.135 V 180.5 m 51.5,0 h 45.781 v 45.781 H 387.635 V 180.5 m 51.5,0 h 45.781 v 45.781 H 439.135 V 180.5 m -412,51.5 h 45.781 v 45.781 H 27.135 V 232 m 51.5,0 h 45.781 v 45.781 H 78.635 V 232 m 51.5,0 h 45.781 v 45.781 H 130.135 V 232 m 51.5,0 h 45.781 v 45.781 H 181.635 V 232 m 51.5,0 h 45.781 v 45.781 H 233.135 V 232 m 51.5,0 h 45.75 v 45.781 h -45.75 V 232 m 51.5,0 h 45.75 v 45.781 h -45.75 V 232 m 51.5,0 h 45.75 v 45.781 h -45.75 V 232 m 51.5,0 h 45.75 v 45.781 h -45.75 V 232 m -412,51.5 h 45.75 v 45.781 H 27.135 V 283.5 m 51.5,0 h 45.75 v 45.781 H 78.635 V 283.5 m 51.47,0 h 45.781 v 45.781 H 130.105 V 283.5 m 51.5,0 h 45.781 v 45.781 H 181.605 V 283.5 m 51.5,0 h 45.781 v 45.781 H 233.105 V 283.5 m 51.5,0 h 45.781 v 45.781 H 284.605 V 283.5 m 51.5,0 h 45.781 v 45.781 H 336.105 V 283.5 m 51.5,0 h 45.781 v 45.781 H 387.605 V 283.5 m 51.5,0 h 45.781 v 45.781 H 439.105 V 283.5 m -412,51.5 h 45.781 v 45.781 H 27.105 V 335 m 51.5,0 h 45.781 v 45.781 H 78.605 V 335 m 51.5,0 h 45.781 v 45.781 H 130.105 V 335 m 51.5,0 h 45.781 v 45.781 H 181.605 V 335 m 51.5,0 h 45.781 v 45.781 H 233.105 V 335 m 51.5,0 h 45.781 v 45.781 H 284.605 V 335 m 51.5,0 h 45.781 v 45.781 H 336.105 V 335 m 51.5,0 h 45.781 v 45.781 H 387.605 V 335 m 51.5,0 h 45.781 v 45.781 H 439.105 V 335 m -412,51.5 h 45.781 v 45.781 H 27.105 V 386.5 m 51.5,0 h 45.781 v 45.781 H 78.605 V 386.5 m 51.5,0 h 45.781 v 45.781 H 130.105 V 386.5 m 51.5,0 h 45.781 v 45.781 H 181.605 V 386.5 m 51.5,0 h 45.781 v 45.781 H 233.105 V 386.5 m 51.5,0 h 45.781 v 45.781 H 284.605 V 386.5 m 51.5,0 h 45.781 v 45.781 H 336.105 V 386.5 m 51.5,0 h 45.781 v 45.781 H 387.605 V 386.5 m 51.5,0 h 45.781 v 45.781 H 439.105 V 386.5 m -412,51.5 h 45.781 v 45.781 H 27.105 V 438 m 51.5,0 h 45.781 v 45.781 H 78.605 V 438 m 51.5,0 h 45.781 v 45.781 H 130.105 V 438 m 51.5,0 h 45.781 v 45.781 H 181.605 V 438 m 51.5,0 h 45.781 v 45.781 H 233.105 V 438 m 51.5,0 h 45.781 v 45.781 H 284.605 V 438 m 51.5,0 h 45.781 v 45.781 H 336.105 V 438 m 51.5,0 h 45.781 v 45.781 H 387.605 V 438 m 51.5,0 h 45.781 v 45.781 H 439.105 V 438"
     inkscape:connector-curvature="0"
     id="path6"
     style="color:#000000;fill:#ffffff;fill-opacity:0.30800003" />
  <path
     d="M 189.68,71.33 154.897,230.22 124.523,72.43 h -83.53 l 74.971,368.15 h 72.35 l 32.821,-156.54 31.953,156.64 h 28.747 l 12.727,-13.635 c 22.716,-27.558 46.781,-47.46 59.42,-74.78 4.929,-12.649 6.167,-23.53 3.827,-33.11 -2.079,-8.504 -6.952,-15.969 -14.592,-22.726 -17.675,-17.238 -33.957,-31.05 -43.15,-50.14 -7.924,-19.657 -12.561,-39.24 -15.214,-56.17 l -24.304,-118.8 h -70.861 m 159.89,1.34 c -14.584,21.629 -24.628,34.949 -32.534,51.814 -19.947,32.907 -15.549,79.2 0.479,113.34 9.02,23.12 29.25,36.29 44.06,52.723 7.316,7.613 11.704,16.489 13.874,25.883 3.443,14.905 1.232,31.04 -4.114,45.07 -14.15,31.675 -38.07,52.46 -62.53,78.81 h 118.66 c 17.297,-21.641 29.737,-49.47 36.691,-72.77 5.354,-18.266 8.04,-36.562 6.316,-52.771 -2.238,-17.06 -8.235,-33.3 -17.03,-45.833 -17.455,-23.977 -43.93,-45.13 -54.25,-64.54 -5.861,-11.861 -6.206,-24.269 -2.584,-41.38 8.404,-38.1 41.62,-56.12 64.78,-90.33 h -111.81"
     inkscape:connector-curvature="0"
     id="path8"
     style="fill:#ffffff" />
  <text
     x="-100.1"
     y="312.48001"
     id="text10"
     style="font-size:129.22999573px;line-height:125%;letter-spacing:0;word-spacing:0;font-family:Gentium Book Basic">
    <tspan
       x="-100.1"
       y="312.48001"
       id="tspan12" />
  </text>
  <text
     x="172.14"
     y="904.75"
     transform="scale(4.0128,0.2492)"
     id="text14"
     style="font-size:46.95399857px;text-anchor:middle;font-family:Arial" />
  <text
     x="481.17001"
     y="232.48"
     id="text16"
     style="font-size:129.22999573px;line-height:125%;letter-spacing:0;word-spacing:0;font-family:Gentium Book Basic">
    <tspan
       x="481.17001"
       y="232.48"
       id="tspan18" />
  </text>
  <text
     x="316.98999"
     y="583.72998"
     transform="scale(4.0128,0.2492)"
     id="text20"
     style="font-size:46.95399857px;text-anchor:middle;font-family:Arial" />
  <text
     x="-590.40997"
     y="51.220001"
     id="text22"
     style="font-size:129.22999573px;line-height:125%;letter-spacing:0;word-spacing:0;font-family:Gentium Book Basic">
    <tspan
       x="-590.40997"
       y="51.220001"
       id="tspan24" />
  </text>
  <text
     x="49.946999"
     y="-143.63"
     transform="scale(4.0128,0.2492)"
     id="text26"
     style="font-size:46.95399857px;text-anchor:middle;font-family:Arial" />
  <text
     x="507.64001"
     y="-165.25"
     id="text28"
     style="font-size:129.22999573px;line-height:125%;letter-spacing:0;word-spacing:0;font-family:Gentium Book Basic">
    <tspan
       x="507.64001"
       y="-165.25"
       id="tspan30" />
  </text>
  <text
     x="323.59"
     y="-1012.3"
     transform="scale(4.0128,0.2492)"
     id="text32"
     style="font-size:46.95399857px;text-anchor:middle;font-family:Arial" />
  <text
     x="1088.91"
     y="-245.25999"
     id="text34"
     style="font-size:129.22999573px;line-height:125%;letter-spacing:0;word-spacing:0;font-family:Gentium Book Basic">
    <tspan
       x="1088.91"
       y="-245.25999"
       id="tspan36" />
  </text>
  <text
     x="468.42999"
     y="-1333.33"
     transform="scale(4.0128,0.2492)"
     id="text38"
     style="font-size:46.95399857px;text-anchor:middle;font-family:Arial" />
  <text
     x="699.78998"
     y="-717.65997"
     id="text40"
     style="font-size:129.22999573px;line-height:125%;letter-spacing:0;word-spacing:0;font-family:Gentium Book Basic">
    <tspan
       x="699.78998"
       y="-717.65997"
       id="tspan42" />
  </text>
  <text
     x="371.45999"
     y="-3228.98"
     transform="scale(4.0128,0.2492)"
     id="text44"
     style="font-size:46.95399857px;text-anchor:middle;font-family:Arial" />
  <text
     x="1281.05"
     y="-797.65997"
     id="text46"
     style="font-size:129.22999573px;line-height:125%;letter-spacing:0;word-spacing:0;font-family:Gentium Book Basic">
    <tspan
       x="1281.05"
       y="-797.65997"
       id="tspan48" />
  </text>
  <text
     x="516.31"
     y="-3550.01"
     transform="scale(4.0128,0.2492)"
     id="text50"
     style="font-size:46.95399857px;text-anchor:middle;font-family:Arial" />
  <text
     x="-551.75"
     y="617.06"
     id="text52"
     style="font-size:208.33000183px;line-height:125%;letter-spacing:0;word-spacing:0;font-family:Gentium Book Basic">
    <tspan
       x="-551.75"
       y="617.06"
       id="tspan54" />
  </text>
</svg>
